X:1
T:Veni redemptor gentium
T:Veni redemptor gentium
T:André Vierendeels (08/09/10)
C:André Vierendeels
C:(08/09/10)
%%score [ 1 2 3 4 ]
L:1/8
Q:1/4=120
M:2/4
K:F
V:1 treble nm="Soprano" snm="S"
V:2 treble nm="Alto" snm="A"
V:3 treble-8 nm="Tenor" snm="T"
V:4 bass nm="Bass" snm="B"
V:1
 F2 A2 |[M:2/2] c4 A4 | F4 d4 | c4 B4 | !fermata!A4 B4 | A4 G4 | A2 B2 c4 | B4 A4 | %8
w: Ve- *|ni re-|dem- ptor|gen- ti-|um, o-|sten- de|par- * tum|Vir- gi-|
 !fermata!G4 G4 | G4 G4 | c4 c4 | d4 c2 =B2 | !fermata!c4 c4 | c4 A4 | B4 A4 | G4 G4 | %16
w: nis: mi-|re- tur|o- mne|sae cu- *|lum, ta-|lis de-|cet par-|tus De-|
 !fermata!F8 |] %17
w: um.|
V:2
 C4 |[M:2/2] G4 F4 | C4 F4 | A4 G2 F2 | !fermata!F4 F4 | F4 D4 | F4 E4 | G4 F4 | !fermata!E4 D4 | %9
w: Ve-|ni re-|dem- ptor|gen- ti- *|um, o-|sten- de|par- tum|Vir- gi-|nis: mi-|
 E4 D4 | E4 F4 | F4 D4 | !fermata!F4 E4 | A4 E4 | G4 FED^C | D2 E2 F2 E2 | !fermata!C8 |] %17
w: re- tur|o- mne|sae- cu-|lum, ta-|lis de-|cet par- * * *|tus _ De- *|um.|
V:3
 A4 |[M:2/2] c4 A4 | A4 B4 | c4 d4 | !fermata!c4 d4 | c4 B4 | c2 B2 G4 | d4 d2 c2 | %8
w: Ve-|ni re-|dem- ptor|gen- ti-|um, o-|sten- de|par- * tum|Vir- gi- *|
 !fermata!c4 B4 | c4 B2 A2 | GABc A4 | A4 G4 | !fermata!A4 G4 | A2 B2 d2 c2 | d2 cB A4 | B4 c4 | %16
w: nis: mi-|re- tur _|o- * * * mne|sae- cu-|lum, ta-|lis _ de- *|cet _ _ par-|tus De-|
 !fermata!A8 |] %17
w: um.|
V:4
 F,4 |[M:2/2] E,4 D,2 E,2 | F,4 B,,4 | F,4 G,2 B,2 | !fermata!F,4 B,4 | F,4 G,4 | F,2 D,2 C,4 | %7
w: Ve-|ni re- *|dem- ptor|gen- ti- *|um, o-|sten- de|par- * tum|
 G,4 D,2 F,2 | !fermata!C,4 G,4 | C,4 G,4 | C,4 F,4 | D,4 G,4 | !fermata!F,4 C,4 | F,4 A,4 | %14
w: Vir- gi- *|nis: mi-|re- tur|o- mne|sae- cu-|lum, ta-|lis de-|
 G,2 E,G, D,3 E, | G,4 C,4 | !fermata!F,8 |] %17
w: cet _ par- * *|tus De-|um.|

